public/avatar/hat/44.svg

<svg xmlns:xlink="http://www.w3.org/1999/xlink" height="92.9" width="100.7" xmlns="http://www.w3.org/2000/svg"><g transform="translate(38.65 49.75)"><use height="21.7" transform="translate(-16.3 -.2)" width="31.85" xlink:href="#a"/><use height="13.15" transform="translate(-19.15 10.35)" width="13.1" xlink:href="#b"/><use height="13.15" transform="matrix(-1 0 0 1 18.75 10.35)" width="13.1" xlink:href="#b"/><use height="26.15" transform="translate(-3.05 -16)" width="5.2" xlink:href="#c"/></g><defs><g id="a"><path d="M15.05 14.65Q13.2 19.5 7.6 21q1.85-3.1 1.75-7.45-.05-3.8-1.3-5.5-3.75-5.1-8.3 1.6l-.15-.2-.05-.1q-4.4-6.1-7.9-1.45-1.1 1.4-1.45 4.9-.5 4.8 2.1 8.2-5.65-1.1-8.1-6.4Q-11.2 1.4-2.15 0L-.1-.2l1.4.05q9.3.85 13.75 14.8" fill="url(#d)" fill-rule="evenodd" transform="translate(16.3 .2)"/><path d="M-15.8 14.6q2.45 5.3 8.1 6.4-2.6-3.4-2.1-8.2.35-3.5 1.45-4.9 3.5-4.65 7.9 1.45l.05.1.15.2q4.55-6.7 8.3-1.6 1.25 1.7 1.3 5.5.1 4.35-1.75 7.45 5.6-1.5 7.45-6.35" fill="none" stroke="#ad6001" stroke-linecap="round" stroke-linejoin="round" transform="translate(16.3 .2)"/></g><g id="g"><path d="M14.15 9.5 12 10q3.6 2.6-.8 1.7l.85 1.65q-2.9.4-5.5-.75-3.4-1.5-4.3-5.1l.1-.05-.1-.1q-.65-2.85 1-4.85l1.2-1.2 6.6 5.8 3.1 2.4m-10.9-7Q6.6 9.45 12 10q-5.4-.55-8.75-7.5m7.95 9.2q-4.15-.2-8.85-4.25 4.7 4.05 8.85 4.25" fill="url(#e)" fill-rule="evenodd" transform="translate(-1.55 -.8)"/><path d="M2.25 7.5v-.15l.1.1-.1.05" fill="url(#f)" fill-rule="evenodd" transform="translate(-1.55 -.8)"/><path d="M12.05 13.35q-2.9.4-5.5-.75-3.4-1.5-4.3-5.1v-.15q-.65-2.85 1-4.85l1.2-1.2 6.6 5.8 3.1 2.4" fill="none" stroke="#ad6001" stroke-linecap="round" stroke-linejoin="round" transform="translate(-1.55 -.8)"/><path d="m2.25 7.35.1.1" fill="none" stroke="#379d6f" stroke-linecap="round" stroke-linejoin="round" transform="translate(-1.55 -.8)"/><path d="M2.35 7.45q4.7 4.05 8.85 4.25M12 10q-5.4-.55-8.75-7.5" fill="none" stroke="#d66b03" stroke-linecap="round" stroke-linejoin="round" transform="translate(-1.55 -.8)"/></g><g id="c"><path d="m-2.55 2.1 2.1-17.6 2.1 17.9-1.9 7.25-2.3-7.55" fill="#c09602" fill-rule="evenodd" transform="translate(3.05 16)"/><path d="m-2.55 2.1 2.1-17.6 2.1 17.9-1.9 7.25-2.3-7.55Z" fill="none" stroke="#ad6001" stroke-linecap="round" stroke-linejoin="round" transform="translate(3.05 16)"/></g><linearGradient gradientTransform="matrix(-.0039 -.0023 .0029 -.0051 9.5 7.3)" gradientUnits="userSpaceOnUse" id="e" spreadMethod="pad" x1="-819.2" x2="819.2"><stop offset="0" stop-color="#fff"/><stop offset="1" stop-color="#c09602"/></linearGradient><linearGradient gradientTransform="matrix(-.0039 -.0023 .0029 -.0051 9.5 7.3)" gradientUnits="userSpaceOnUse" id="f" spreadMethod="pad" x1="-819.2" x2="819.2"><stop offset="0" stop-color="#fff"/><stop offset="1" stop-color="#44bd97"/></linearGradient><radialGradient cx="0" cy="0" gradientTransform="translate(-.5 3.75) scale(.0196)" gradientUnits="userSpaceOnUse" id="d" r="819.2" spreadMethod="pad"><stop offset="0" stop-color="#fff"/><stop offset=".533" stop-color="#ffcf0a"/><stop offset="1" stop-color="#b48b01"/></radialGradient><use height="13.15" width="13.1" xlink:href="#g" id="b"/></defs></svg>

<?xml version="1.0" encoding="UTF-8" standalone="no"?>
<svg xmlns:xlink="http://www.w3.org/1999/xlink" height="92.9px" width="100.7px" xmlns="http://www.w3.org/2000/svg">
  <g transform="matrix(1.0, 0.0, 0.0, 1.0, 38.65, 49.75)">
    <use height="21.7" transform="matrix(1.0, 0.0, 0.0, 1.0, -16.3, -0.2)" width="31.85" xlink:href="#shape0"/>
    <use height="13.15" transform="matrix(1.0, 0.0, 0.0, 1.0, -19.15, 10.35)" width="13.1" xlink:href="#sprite0"/>
    <use height="13.15" transform="matrix(-1.0, 0.0, 0.0, 1.0, 18.75, 10.35)" width="13.1" xlink:href="#sprite0"/>
    <use height="26.15" transform="matrix(1.0, 0.0, 0.0, 1.0, -3.05, -16.0)" width="5.2" xlink:href="#shape2"/>
  </g>
  <defs>
    <g id="shape0" transform="matrix(1.0, 0.0, 0.0, 1.0, 16.3, 0.2)">
      <path d="M15.05 14.65 Q13.2 19.5 7.6 21.0 9.45 17.9 9.35 13.55 9.3 9.75 8.05 8.05 4.3 2.95 -0.25 9.65 L-0.4 9.45 -0.45 9.35 Q-4.85 3.25 -8.35 7.9 -9.45 9.3 -9.8 12.8 -10.3 17.6 -7.7 21.0 -13.35 19.9 -15.8 14.6 -11.2 1.4 -2.15 0.0 L-0.1 -0.2 1.3 -0.15 Q10.6 0.7 15.05 14.65" fill="url(#gradient0)" fill-rule="evenodd" stroke="none"/>
      <path d="M-15.8 14.6 Q-13.35 19.9 -7.7 21.0 -10.3 17.6 -9.8 12.8 -9.45 9.3 -8.35 7.9 -4.85 3.25 -0.45 9.35 L-0.4 9.45 -0.25 9.65 Q4.3 2.95 8.05 8.05 9.3 9.75 9.35 13.55 9.45 17.9 7.6 21.0 13.2 19.5 15.05 14.65" fill="none" stroke="#ad6001" stroke-linecap="round" stroke-linejoin="round" stroke-width="1.0"/>
    </g>
    <radialGradient cx="0" cy="0" gradientTransform="matrix(0.0196, 0.0, 0.0, 0.0196, -0.5, 3.75)" gradientUnits="userSpaceOnUse" id="gradient0" r="819.2" spreadMethod="pad">
      <stop offset="0.0" stop-color="#ffffff"/>
      <stop offset="0.5333333333333333" stop-color="#ffcf0a"/>
      <stop offset="1.0" stop-color="#b48b01"/>
    </radialGradient>
    <g id="sprite0" transform="matrix(1.0, 0.0, 0.0, 1.0, -1.55, -0.8)">
      <use height="13.15" transform="matrix(1.0, 0.0, 0.0, 1.0, 1.55, 0.8)" width="13.1" xlink:href="#shape1"/>
    </g>
    <g id="shape1" transform="matrix(1.0, 0.0, 0.0, 1.0, -1.55, -0.8)">
      <path d="M14.15 9.5 L12.0 10.0 Q15.6 12.6 11.2 11.7 L12.05 13.35 Q9.15 13.75 6.55 12.6 3.15 11.1 2.25 7.5 L2.35 7.45 2.25 7.35 Q1.6 4.5 3.25 2.5 L4.45 1.3 11.05 7.1 14.15 9.5 M3.25 2.5 Q6.6 9.45 12.0 10.0 6.6 9.45 3.25 2.5 M11.2 11.7 Q7.05 11.5 2.35 7.45 7.05 11.5 11.2 11.7" fill="url(#gradient1)" fill-rule="evenodd" stroke="none"/>
      <path d="M2.25 7.5 L2.25 7.35 2.35 7.45 2.25 7.5" fill="url(#gradient2)" fill-rule="evenodd" stroke="none"/>
      <path d="M12.05 13.35 Q9.15 13.75 6.55 12.6 3.15 11.1 2.25 7.5 L2.25 7.35 Q1.6 4.5 3.25 2.5 L4.45 1.3 11.05 7.1 14.15 9.5" fill="none" stroke="#ad6001" stroke-linecap="round" stroke-linejoin="round" stroke-width="1.0"/>
      <path d="M2.25 7.35 L2.35 7.45" fill="none" stroke="#379d6f" stroke-linecap="round" stroke-linejoin="round" stroke-width="1.0"/>
      <path d="M2.35 7.45 Q7.05 11.5 11.2 11.7 M12.0 10.0 Q6.6 9.45 3.25 2.5" fill="none" stroke="#d66b03" stroke-linecap="round" stroke-linejoin="round" stroke-width="1.0"/>
    </g>
    <linearGradient gradientTransform="matrix(-0.0039, -0.0023, 0.0029, -0.0051, 9.5, 7.3)" gradientUnits="userSpaceOnUse" id="gradient1" spreadMethod="pad" x1="-819.2" x2="819.2">
      <stop offset="0.0" stop-color="#ffffff"/>
      <stop offset="1.0" stop-color="#c09602"/>
    </linearGradient>
    <linearGradient gradientTransform="matrix(-0.0039, -0.0023, 0.0029, -0.0051, 9.5, 7.3)" gradientUnits="userSpaceOnUse" id="gradient2" spreadMethod="pad" x1="-819.2" x2="819.2">
      <stop offset="0.0" stop-color="#ffffff"/>
      <stop offset="1.0" stop-color="#44bd97"/>
    </linearGradient>
    <g id="shape2" transform="matrix(1.0, 0.0, 0.0, 1.0, 3.05, 16.0)">
      <path d="M-2.55 2.1 L-0.45 -15.5 1.65 2.4 -0.25 9.65 -2.55 2.1" fill="#c09602" fill-rule="evenodd" stroke="none"/>
      <path d="M-2.55 2.1 L-0.45 -15.5 1.65 2.4 -0.25 9.65 -2.55 2.1 Z" fill="none" stroke="#ad6001" stroke-linecap="round" stroke-linejoin="round" stroke-width="1.0"/>
    </g>
  </defs>
</svg>
